!!!COM:	Bach, Johann Sebastian
!!!OMV:	Jesu, der du meine Seele
!!!OTL:	Jesu, der du meine Seele
**kern	**fb	**kern	**kern	**kern	**kern	**kern
*part6	*part6	*part5	*part4	*part3	*part2	*part1
*staff6	*	*staff5	*staff4	*staff3	*staff2	*staff1
*I"Continuo	*	*I"Voice	*I"Voice	*I"Voice	*I"Voice	*I"Flute
*I'Cont.	*	*I'V	*I'V	*I'V	*I'V	*I'Fl.
*clefF4	*	*clefF4	*clefGv2	*clefG2	*clefG2	*clefG2
*Trd0c0	*	*	*	*	*	*
*k[b-e-]	*	*k[b-e-]	*k[b-e-]	*k[b-e-]	*k[b-e-]	*k[b-e-]
*M4/4	*	*M4/4	*M4/4	*M4/4	*M4/4	*M4/4
=	=	=	=	=	=	=
8GL	.	8GL	8B-L	4g	4dd	4ddd
8AJ	.	8AJ	8cJ	.	.	.
4B-	6	4B-	4d	4g	4dd	4ddd
4F#X	6	4F#X	4d	4a	4a	4aa
4G	.	4G	4d	4g	4b-	4bb-
=3	=3	=3	=3	=3	=3	=3
4E-	6	4E-	8cL	4g	4cc	4ccc
.	.	.	8dJ	.	.	.
4C	7 5	4C	4e-	4g	8b-L	8bb-L
.	.	.	.	.	8aJ	8aaJ
4D	#	4D	8dL	4f#X	4a	4aa
.	.	.	8cJ	.	.	.
4GG;	.	4GG;	4B-;	4d;	4g;	4gg;
=4	=4	=4	=4	=4	=4	=4
8GL	.	8GL	4G	4d	4b-	4bb-
8FJ	.	8FJ	.	.	.	.
8E-L	5	8E-L	4G	4e-	4b-	4bb-
8DJ	.	8DJ	.	.	.	.
8CL	6 5	8CL	8GL	8e-L	4a	4aa
8DJ	#	8DJ	8F#XJ	8dJ	.	.
4E-	7	4E-	4G	8dL	4g	4gg
.	6	.	.	8cJ	.	.
=5	=5	=5	=5	=5	=5	=5
4AA	#6\	4AA	4A	4c	4f#X	4ff#X
4GG	.	4GG	4B-	4d	4g	4gg
2D;	#	2D;	2F#X;	2d;	2a;	2aa;
=6	=6	=6	=6	=6	=6	=6
8GGL	.	8GGL	8B-L	4d	4dd	4ddd
8AAJ	.	8AAJ	8cJ	.	.	.
8BB-L	6	8BB-L	4d	4g	4dd	4ddd
8CJ	.	8CJ	.	.	.	.
4D	#	4D	4d	4f#X	4a	4aa
8GL	.	4G	4d	4g	4b-	4bb-
8FJ	.	.	.	.	.	.
=7	=7	=7	=7	=7	=7	=7
!!linebreak:original
8E-L	6_	4E-	8cL	4g	4cc	4ccc
8DJ	.	.	8dJ	.	.	.
4C	7 5	4C	4e-	4g	8b-L	8bb-L
.	.	.	.	.	8aJ	8aaJ
4D	#	4D	8dL	4f#X	4a	4aa
.	.	.	8cJ	.	.	.
4GG;	.	4GG;	4B-;	4d;	4g;	4gg;
=8	=8	=8	=8	=8	=8	=8
8GL	.	8GL	4G	4d	4b-	4bb-
8FJ	.	8FJ	.	.	.	.
8E-L	5	8E-L	4G	4e-	4b-	4bb-
8DJ	.	8DJ	.	.	.	.
8CL	6 5	8CL	8GL	8e-L	4a	4aa
8DJ	#	8DJ	8F#XJ	8dJ	.	.
4E-	7	4E-	4G	8dL	4g	4gg
.	6	.	.	8cJ	.	.
=9	=9	=9	=9	=9	=9	=9
4AA	#6\	4AA	4A	4c	4f#X	4ff#X
4GG	.	4GG	4B-	4d	4g	4gg
2D;	.	2D;	2F#X;	2d;	2a;	2aa;
=10	=10	=10	=10	=10	=10	=10
4D	#	4D	4d	4f#X	4a	4aa
8GL	.	8GL	4d	4g	4b-	4bb-
8FJ	.	8FnJ	.	.	.	.
4En	6	4En	4c	4g	4cc	4ccc
8FL	.	4F	4c	4fn	4a	4aa
8E-XJ	.	.	.	.	.	.
=11	=11	=11	=11	=11	=11	=11
8DL	6_	4D	8B-L	4f	4b-	4bb-
8CJ	.	.	8cJ	.	.	.
4BB-	7 5	4BB-	4d	4f	8aL	8aaL
.	.	.	.	.	8gJ	8ggJ
4C	n	4C	8cL	4en	4g	4gg
.	.	.	8B-J	.	.	.
4FF;	.	4F;	4A;	4c;	4f;	4ff;
=12	=12	=12	=12	=12	=12	=12
!!pagebreak:original
4D	6	4D	4B-	4f	4b-	4bb-
4C	5	4C	4e-	8gL	4cc	4ccc
.	6	.	.	8aJ	.	.
4BB-	.	4BB-	4f	4b-	4dd	4ddd
8B-L	.	8B-L	4f	4b-	4dd	4ddd
8AJ	.	8AJ	.	.	.	.
=13	=13	=13	=13	=13	=13	=13
4G	6	4G	8e-L	4b-	4ee-	4eee-
.	.	.	8fJ	.	.	.
4E-	7 5	4E-	4g	4b-	8ddL	8dddL
.	.	.	.	.	8ccJ	8cccJ
4F	.	4F	8fL	4a	4cc	4ccc
.	.	.	8e-J	.	.	.
4BB-;	.	4BB-;	4d;	4f;	4b-;	4bb-;
=14	=14	=14	=14	=14	=14	=14
8BB-L	.	8BB-L	4B-	4f	4dd	4ddd
8CJ	.	8CJ	.	.	.	.
8DL	6	8DL	4B-	4f	4dd	4ddd
8E-J	.	8E-J	.	.	.	.
4F	.	4F	4A	8fL	4cc	4ccc
.	.	.	.	8e-J	.	.
4F#X	6 5	4F#X	4A	4d	4dd	4ddd
=15	=15	=15	=15	=15	=15	=15
8GL	.	8GL	8GL	4d	4b-	4bb-
8FJ	.	8FnJ	8B-J	.	.	.
4E-	6	4E-	8AL	4g	4cc	4ccc
.	.	.	8GJ	.	.	.
2D;	#	2D;	2A;	2f#X;	2dd;	2ddd;
=16	=16	=16	=16	=16	=16	=16
8GL	.	8GL	8B-L	4g	4dd	4ddd
8AJ	.	8AJ	8cJ	.	.	.
4B-	6	4B-	4d	4g	4dd	4ddd
4F#X	7 5	4F#X	4e-	4a	4cc	4ccc
4G	.	4G	4d	4g	4b-	4bb-
=17	=17	=17	=17	=17	=17	=17
4C	6 5	4C	4e-	4g	4a	4.aa
4D	#	4D	8dL	4f#X	4a	.
.	.	.	8cJ	.	.	8aa
2GG;	n	2GG;	2Bn;	2d;	2g;	2gg;
=||	=||	=||	=||	=||	=||	=||
*-	*-	*-	*-	*-	*-	*-
!!!system-decoration: s1,s2,s3,s4,s5,s6
